X:884
T:Tigh Eachainn
T:Auld Road to Towie
R:Strathspey
B:The Athole Collection
M:C
L:1/8
K:G
g|e/e/e e>g e2 d>c|B>AA>G B>AA>B|d/d/d d>g e2 d>g|B<G G>A B<GG:|
d|g>ab>g a>eg>B|B>AA>G B>AA>B|d/d/d d>g e2 d>g|B<G G>A B<G G>d|
g>ab>g a>eg>B|B>AA>G B>AA>B|d>eg>d e<gd<g|B<G G>A B<GG||

